static/cards/FrenchDeck/cyberwave/card_diamonds_A.svg

<svg xmlns="http://www.w3.org/2000/svg" width="822" height="1122" fill="none" viewBox="0 0 822 1122"><rect width="822" height="1122" fill="#1a0033" rx="20"/><g clip-path="url(#a)"><path stroke="#b366ff" stroke-width="20" d="M391.865 408.932c7.918-11.862 25.352-11.862 33.27 0l93.429 139.964a20 20 0 0 1 0 22.208l-93.429 139.964c-7.918 11.862-25.352 11.862-33.27 0l-93.429-139.964a20 20 0 0 1 0-22.208z"/><path fill="#b366ff" d="M83.77 159q-1.025 0-1.536-.64-.384-.768 0-1.664l35.072-82.56q.512-1.28.896-1.664.512-.512 1.664-.512h2.304q1.152 0 1.536.512.511.384 1.024 1.664l35.072 82.56q.128.256.128.768 0 .64-.512 1.152-.384.384-1.152.384h-2.432q-1.409 0-2.048-.512-.64-.512-1.152-1.664l-9.728-23.04H99.129l-9.728 23.04q-.511 1.152-1.151 1.664T86.2 159zm56.448-31.488-19.2-45.44-19.328 45.44zM112.679 208.481c3.959-5.938 12.683-5.938 16.642 0l21.981 32.972a10 10 0 0 1 0 11.094l-21.981 32.972c-3.959 5.938-12.683 5.938-16.642 0l-21.981-32.972a10 10 0 0 1 0-11.094zM730.23 959q1.024 0 1.536.64.384.768 0 1.664l-35.072 82.556c-.341.86-.64 1.41-.896 1.67q-.512.51-1.664.51h-2.304q-1.152 0-1.536-.51c-.341-.26-.682-.81-1.024-1.67l-35.072-82.556q-.128-.257-.128-.768 0-.64.512-1.152.384-.384 1.152-.384h2.432q1.409 0 2.048.512.64.512 1.152 1.664l9.728 23.04h43.776l9.728-23.04q.513-1.152 1.152-1.664.64-.512 2.048-.512zm-56.448 31.488 19.2 45.442 19.328-45.442zM701.321 909.519c-3.959 5.938-12.683 5.938-16.642 0l-21.981-32.972a10 10 0 0 1 0-11.094l21.981-32.972c3.959-5.938 12.683-5.938 16.642 0l21.981 32.972a10 10 0 0 1 0 11.094z"/></g><defs><clipPath id="a"><path fill="#fff" d="M46 48h722v1022H46z"/></clipPath></defs></svg>

<svg width="822" height="1122" viewBox="0 0 822 1122" fill="none" xmlns="http://www.w3.org/2000/svg">
<rect width="822" height="1122" rx="20" fill="#1A0033"/>
<g clip-path="url(#clip0_4_29)">
<path d="M391.865 408.932C399.783 397.07 417.217 397.07 425.135 408.932L518.564 548.896C523.052 555.619 523.052 564.381 518.564 571.104L425.135 711.068C417.217 722.93 399.783 722.93 391.865 711.068L298.436 571.104C293.948 564.381 293.948 555.619 298.436 548.896L391.865 408.932Z" stroke="#B366FF" stroke-width="20"/>
<path d="M83.7695 159C83.0868 159 82.5748 158.787 82.2335 158.36C81.9775 157.848 81.9775 157.293 82.2335 156.696L117.306 74.136C117.647 73.2827 117.946 72.728 118.202 72.472C118.543 72.1307 119.098 71.96 119.866 71.96H122.17C122.938 71.96 123.45 72.1307 123.706 72.472C124.047 72.728 124.388 73.2827 124.73 74.136L159.802 156.696C159.887 156.867 159.93 157.123 159.93 157.464C159.93 157.891 159.759 158.275 159.418 158.616C159.162 158.872 158.778 159 158.266 159H155.834C154.895 159 154.212 158.829 153.786 158.488C153.359 158.147 152.975 157.592 152.634 156.824L142.906 133.784H99.1295L89.4015 156.824C89.0602 157.592 88.6762 158.147 88.2495 158.488C87.8228 158.829 87.1402 159 86.2015 159H83.7695ZM140.218 127.512L121.018 82.072L101.69 127.512H140.218Z" fill="#B366FF"/>
<path d="M112.679 208.481C116.638 202.543 125.362 202.543 129.321 208.481L151.302 241.453C153.541 244.812 153.541 249.188 151.302 252.547L129.321 285.519C125.362 291.457 116.638 291.457 112.679 285.519L90.698 252.547C88.4587 249.188 88.4587 244.812 90.698 241.453L112.679 208.481Z" fill="#B366FF"/>
<path d="M730.23 959C730.913 959 731.425 959.213 731.766 959.64C732.022 960.152 732.022 960.707 731.766 961.304L696.694 1043.86C696.353 1044.72 696.054 1045.27 695.798 1045.53C695.457 1045.87 694.902 1046.04 694.134 1046.04H691.83C691.062 1046.04 690.55 1045.87 690.294 1045.53C689.953 1045.27 689.612 1044.72 689.27 1043.86L654.198 961.304C654.113 961.133 654.07 960.877 654.07 960.536C654.07 960.109 654.241 959.725 654.582 959.384C654.838 959.128 655.222 959 655.734 959H658.166C659.105 959 659.788 959.171 660.214 959.512C660.641 959.853 661.025 960.408 661.366 961.176L671.094 984.216H714.87L724.598 961.176C724.94 960.408 725.324 959.853 725.75 959.512C726.177 959.171 726.86 959 727.798 959H730.23ZM673.782 990.488L692.982 1035.93L712.31 990.488H673.782Z" fill="#B366FF"/>
<path d="M701.321 909.519C697.362 915.457 688.638 915.457 684.679 909.519L662.698 876.547C660.459 873.188 660.459 868.812 662.698 865.453L684.679 832.481C688.638 826.543 697.362 826.543 701.321 832.481L723.302 865.453C725.541 868.812 725.541 873.188 723.302 876.547L701.321 909.519Z" fill="#B366FF"/>
</g>
<defs>
<clipPath id="clip0_4_29">
<rect width="722" height="1022" fill="white" transform="translate(46 48)"/>
</clipPath>
</defs>
</svg>
